assets/images/zhineng.svg

<svg xmlns="http://www.w3.org/2000/svg" preserveAspectRatio="xMidYMid" width="120" height="30" viewBox="0 0 120 30"><defs><style>.cls-1{fill:#0d0d0d;fill-rule:evenodd}</style></defs><path d="M116.703 19.492c-.782.548-1.289.392-1.523-.469-.938-3.358-2.227-5.78-3.867-7.265-.158-.235-.118-.311.117-.235 4.14 1.641 6.405 3.282 6.797 4.922-.079 1.251-.586 2.267-1.524 3.047zm-5.273 3.633l-.117-3.281c0-.156.076-.273.234-.352.077 0 .156.079.234.235l.821 2.343c.468 1.095 1.131 1.993 1.992 2.696 1.249.937 1.093 1.796-.469 2.578-2.736.859-6.368.976-10.898.351-2.579-.468-3.829-2.303-3.75-5.508l.234-9.023c0-2.344-.04-3.75-.117-4.219 0-.155.077-.194.234-.117l3.164 1.406c.156 0 .156.118 0 .352l-.351.703-.938 11.367c-.157 1.564.586 2.344 2.227 2.344 2.499.313 4.804.117 6.914-.586.469-.156.663-.586.586-1.289zm-5.157-15.586c-1.016-2.655-2.343-4.453-3.984-5.391-.157-.155-.079-.234.234-.234 3.985 1.095 6.094 2.15 6.329 3.164 0 1.251-.392 2.188-1.172 2.813-.782.468-1.251.351-1.407-.352zM92.914 21.484c-.861-.155-.937-.858-.234-2.109 1.327-1.718 2.03-4.374 2.109-7.969 0-.155.117-.234.352-.234.077 0 .155.079.234.234 1.014 3.439 1.132 6.251.352 8.438-.704 1.016-1.641 1.563-2.813 1.64zm-3.82-11.836l-7.5.235-.235 7.734 2.227-.117 1.289-1.641 2.695 1.758c.156.079.156.196 0 .352l-.586.82.118 6.797.234.586c.156.234.038.351-.352.351-2.343-.234-5.703-.351-10.078-.351v.117l.117 1.289c-.781 1.328-1.602 1.796-2.46 1.406l-.118-12.07c0-.39.118-.507.352-.351l2.109 1.171h2.11l.117-12.656V.859l3.398.938c.156.079.156.196 0 .351l-.82 1.055-.117 5.859h3.867l1.641-1.992 2.109 2.227c.156.234.117.351-.117.351zm-12.188 8.907v7.031h6.914v-7.383l-6.914.352zm-5.156 8.32c-.782-2.344-1.758-3.867-2.93-4.57-.078-.235 0-.352.235-.352 2.578 1.095 4.14 2.071 4.687 2.93.235.547 0 1.289-.703 2.226-.626.469-1.055.39-1.289-.234zm1.055-21.914V18.32c-.235 1.172-.782 2.15-1.641 2.93-.234.079-.43-.038-.586-.352l.117-16.64-4.336.234-.468.703-.352 13.828c-.157 1.33-.509 2.344-1.055 3.047-.157.235-.313.352-.468.352-.158 0-.235-.117-.235-.352l.235-13.945c0-3.203-.041-5.039-.118-5.508-.078-.234 0-.311.235-.234l2.344 1.523 4.218-.117.821-1.172 1.875 1.055c.155.079.155.196 0 .351l-.586.938zM67.18 7.656c0-.311.077-.469.234-.469l1.758.704c.311 0 .351.274.117.82.077 6.72-.313 11.25-1.172 13.594-.782 2.501-2.853 4.998-6.211 7.5-.313.155-.392.077-.234-.235 2.578-2.422 4.178-4.998 4.805-7.734.703-2.734.937-7.46.703-14.18zM51.875 27.813c-2.812-.314-4.219-1.758-4.219-4.336v-8.321c0-.234.077-.273.235-.117l2.343 1.055c.156.078.156.196 0 .351l-.468.821-.118 4.218c2.5-1.093 4.336-2.343 5.508-3.75.156-.155.273-.155.352 0l1.406 1.407.234.234-.234.117c-2.578 1.016-5.001 1.798-7.266 2.344l-.117 2.227c0 1.094.507 1.64 1.524 1.64 1.64.235 3.281.196 4.922-.117.937-.39 1.6-1.289 1.992-2.695.077-.156.155-.194.234-.118.077 0 .156.079.235.235-.158 1.016 0 1.758.468 2.226.625.938.429 1.641-.586 2.11-1.798.703-3.946.859-6.445.469zm-1.055-13.36c-2.501-.39-3.673-1.835-3.515-4.336l.234-8.555c0-.234.039-.272.117-.117l2.461 1.172c.156.079.156.196 0 .352l-.469.82-.468 7.148c-.079.704.39 1.095 1.406 1.172 1.483.235 3.047.196 4.687-.117.78-.155 1.445-.82 1.993-1.992.077-.077.155-.117.234-.117.077 0 .117.079.117.234-.157.938.039 1.564.586 1.875.625.626.469 1.212-.469 1.758-1.953.861-4.259 1.095-6.914.703zm5.391-7.266c-.861.392-2.54.938-5.039 1.641-.079 0-.158-.038-.234-.117l.117-.234c1.562-.938 2.772-1.952 3.632-3.047.077-.077.156-.117.235-.117l1.523 1.523c.077.079.077.157 0 .234 0 .079-.078.117-.234.117zm-11.25 3.75c-.703.548-1.172.431-1.406-.351v-.234a5.289 5.289 0 0 0-.469-1.29c-3.36.627-6.017 1.134-7.969 1.524-.392.157-.586.117-.586-.117l-.234-1.172c-.079-.235 0-.352.234-.352.703-.234 1.211-.586 1.524-1.054 2.03-2.031 3.475-4.14 4.336-6.329 0-.155.038-.234.117-.234 0-.077.077-.038.234.117l2.11 1.875c.234.235.155.469-.235.703-.234.158-.547.431-.937.821-1.875 1.719-3.36 3.087-4.453 4.101l5.859-.117a28 28 0 0 0-1.055-2.695c-.078-.235 0-.311.235-.235 1.796 1.095 2.929 2.033 3.398 2.813.156.234.156.547 0 .937-.234.548-.469.978-.703 1.289zM29.656 6.25v4.687l.117.352c.077 0 .039.04-.117.117-1.329 0-3.556.079-6.679.235v.937c.076.782-.392 1.564-1.407 2.344-.234.157-.392.196-.468.117-.079 0-.118-.077-.118-.234V6.836c0-.39-.04-1.055-.117-1.992v-.938c0-.077.039-.155.117-.234l.235.117 1.758 1.055 4.218-.117.938-1.055 2.109 1.523c.156.079.156.158 0 .235l-.586.82zm-2.461-1.172l-4.218.117v5.86l4.335-.235-.117-5.742zM15.359 10c-.157.234-.313.665-.468 1.289v.234c2.186.627 3.398 1.251 3.632 1.875.156.704-.157 1.368-.937 1.993-.392.234-.703.117-.938-.352a7.084 7.084 0 0 0-1.992-3.164c-.626 1.485-1.523 2.695-2.695 3.633l1.875.937h8.906l1.524-1.406 2.343 1.875c.156.079.156.196 0 .352l-.703.937V25c0 1.328-.664 2.538-1.992 3.633-.313.39-.586.351-.82-.117-.548-1.172-.938-1.875-1.172-2.11l-8.32.235c-.314.624-.821 1.289-1.524 1.992-.313.234-.547.155-.703-.235l.117-10.429-.117-1.992c-1.485 1.171-4.259 2.422-8.32 3.75-.158.078-.275.04-.352-.118 0-.155.077-.272.235-.351 6.093-2.11 9.492-5.195 10.195-9.258l-3.633.117c-1.406.079-2.461.235-3.164.469l-.82-.82 7.734-.352c.311-1.172.469-2.538.469-4.101h-2.227a23.473 23.473 0 0 1-4.336 3.984c-.234.079-.313 0-.234-.235 2.344-2.343 3.906-4.998 4.687-7.968l1.875 1.289c.156.079.156.196 0 .351l-.468.352a6.252 6.252 0 0 1-1.172 1.641H17l1.172-1.407 1.64 1.641c.156 0 .118.079-.117.234h-3.867c0 1.641-.117 3.047-.351 4.219l1.875-.117 1.171-1.289 1.641 1.523c.156.158.156.235 0 .235L15.359 10zm7.618 15.938l.117-8.204c0-.545-.469-.82-1.406-.82l-7.969.117v3.867l7.265-.234c.235 0 .352.079.352.234 0 .235-.117.352-.352.352l-7.265.117-.117 4.688 9.375-.117zm13.312-13.477l1.992.937 3.985-.351 1.171-1.172 1.875 1.406c.156.158.156.313 0 .469l-.468.586-.117 11.953c-.079 1.172-.821 2.227-2.227 3.164-.157.156-.313.077-.469-.234-.078-.861-.351-1.406-.82-1.641-.158-.157-.117-.234.117-.234 1.093.077 1.562-.158 1.406-.703l-.117-12.305c0-.311-.157-.546-.469-.703l-3.867.351-.117 3.985 3.516-.352c.234 0 .351.079.351.235 0 .157-.117.274-.351.351l-3.516.352-.117 3.984 3.633-.352c.234 0 .351.079.351.235 0 .234-.117.351-.351.351l-3.633.352v3.281c.077 1.328-.352 2.382-1.289 3.164-.235.156-.392.235-.469.235-.157-.079-.234-.196-.234-.352l.117-13.359c0-.625-.04-1.445-.117-2.461v-.938c0-.234.077-.311.234-.234z" class="cls-1"/></svg>

<svg xmlns="http://www.w3.org/2000/svg" xmlns:xlink="http://www.w3.org/1999/xlink" preserveAspectRatio="xMidYMid" width="120" height="30" viewBox="0 0 120 30">
  <defs>
    <style>
      .cls-1 {
        fill: #0d0d0d;
        fill-rule: evenodd;
      }
    </style>
  </defs>
  <path d="M116.703,19.492 C115.921,20.040 115.414,19.884 115.180,19.023 C114.242,15.665 112.953,13.243 111.313,11.758 C111.155,11.523 111.195,11.447 111.430,11.523 C115.570,13.164 117.835,14.805 118.227,16.445 C118.148,17.696 117.641,18.712 116.703,19.492 ZM111.430,23.125 L111.313,19.844 C111.313,19.688 111.389,19.571 111.547,19.492 C111.624,19.492 111.703,19.571 111.781,19.727 L112.602,22.070 C113.070,23.165 113.733,24.063 114.594,24.766 C115.843,25.703 115.687,26.562 114.125,27.344 C111.389,28.203 107.757,28.320 103.227,27.695 C100.648,27.227 99.398,25.392 99.477,22.187 L99.711,13.164 C99.711,10.820 99.671,9.414 99.594,8.945 C99.594,8.790 99.671,8.751 99.828,8.828 L102.992,10.234 C103.148,10.234 103.148,10.352 102.992,10.586 L102.641,11.289 L101.703,22.656 C101.546,24.220 102.289,25.000 103.930,25.000 C106.429,25.313 108.734,25.117 110.844,24.414 C111.313,24.258 111.507,23.828 111.430,23.125 ZM106.273,7.539 C105.257,4.884 103.930,3.086 102.289,2.148 C102.132,1.993 102.210,1.914 102.523,1.914 C106.508,3.009 108.617,4.064 108.852,5.078 C108.852,6.329 108.460,7.266 107.680,7.891 C106.898,8.359 106.429,8.242 106.273,7.539 ZM92.914,21.484 C92.053,21.329 91.977,20.626 92.680,19.375 C94.007,17.657 94.710,15.001 94.789,11.406 C94.789,11.251 94.906,11.172 95.141,11.172 C95.218,11.172 95.296,11.251 95.375,11.406 C96.389,14.845 96.507,17.657 95.727,19.844 C95.023,20.860 94.086,21.407 92.914,21.484 ZM89.094,9.648 L81.594,9.883 L81.359,17.617 L83.586,17.500 L84.875,15.859 L87.570,17.617 C87.726,17.696 87.726,17.813 87.570,17.969 L86.984,18.789 L87.102,25.586 L87.336,26.172 C87.492,26.406 87.374,26.523 86.984,26.523 C84.641,26.289 81.281,26.172 76.906,26.172 L76.906,26.289 L77.023,27.578 C76.242,28.906 75.421,29.374 74.563,28.984 L74.445,16.914 C74.445,16.524 74.563,16.407 74.797,16.563 L76.906,17.734 L79.016,17.734 L79.133,5.078 L79.133,0.859 L82.531,1.797 C82.687,1.876 82.687,1.993 82.531,2.148 L81.711,3.203 L81.594,9.062 L85.461,9.062 L87.102,7.070 L89.211,9.297 C89.367,9.531 89.328,9.648 89.094,9.648 ZM76.906,18.555 L76.906,25.586 L83.820,25.586 L83.820,18.203 L76.906,18.555 ZM71.750,26.875 C70.968,24.531 69.992,23.008 68.820,22.305 C68.742,22.070 68.820,21.953 69.055,21.953 C71.633,23.048 73.195,24.024 73.742,24.883 C73.977,25.430 73.742,26.172 73.039,27.109 C72.413,27.578 71.984,27.499 71.750,26.875 ZM72.805,4.961 L72.805,13.867 C72.805,15.508 72.805,16.993 72.805,18.320 C72.570,19.492 72.023,20.470 71.164,21.250 C70.930,21.329 70.734,21.212 70.578,20.898 L70.695,4.258 L66.359,4.492 L65.891,5.195 L65.539,19.023 C65.382,20.353 65.030,21.367 64.484,22.070 C64.327,22.305 64.171,22.422 64.016,22.422 C63.858,22.422 63.781,22.305 63.781,22.070 L64.016,8.125 C64.016,4.922 63.975,3.086 63.898,2.617 C63.820,2.383 63.898,2.306 64.133,2.383 L66.477,3.906 L70.695,3.789 L71.516,2.617 L73.391,3.672 C73.546,3.751 73.546,3.868 73.391,4.023 L72.805,4.961 ZM67.180,7.656 C67.180,7.345 67.257,7.187 67.414,7.187 L69.172,7.891 C69.483,7.891 69.523,8.165 69.289,8.711 C69.366,15.431 68.976,19.961 68.117,22.305 C67.335,24.806 65.264,27.303 61.906,29.805 C61.593,29.960 61.514,29.882 61.672,29.570 C64.250,27.148 65.850,24.572 66.477,21.836 C67.180,19.102 67.414,14.376 67.180,7.656 ZM51.875,27.813 C49.063,27.499 47.656,26.055 47.656,23.477 L47.656,17.500 L47.656,15.156 C47.656,14.922 47.733,14.883 47.891,15.039 L50.234,16.094 C50.390,16.172 50.390,16.290 50.234,16.445 L49.766,17.266 L49.648,21.484 C52.148,20.391 53.984,19.141 55.156,17.734 C55.312,17.579 55.429,17.579 55.508,17.734 L56.914,19.141 L57.148,19.375 L56.914,19.492 C54.336,20.508 51.913,21.290 49.648,21.836 L49.531,24.063 C49.531,25.157 50.038,25.703 51.055,25.703 C52.695,25.938 54.336,25.899 55.977,25.586 C56.914,25.196 57.577,24.297 57.969,22.891 C58.046,22.735 58.124,22.697 58.203,22.773 C58.280,22.773 58.359,22.852 58.438,23.008 C58.280,24.024 58.438,24.766 58.906,25.234 C59.531,26.172 59.335,26.875 58.320,27.344 C56.522,28.047 54.374,28.203 51.875,27.813 ZM50.820,14.453 C48.319,14.063 47.147,12.618 47.305,10.117 L47.539,1.562 C47.539,1.328 47.578,1.290 47.656,1.445 L50.117,2.617 C50.273,2.696 50.273,2.813 50.117,2.969 L49.648,3.789 L49.180,10.937 C49.101,11.641 49.570,12.032 50.586,12.109 C52.069,12.344 53.633,12.305 55.273,11.992 C56.053,11.837 56.718,11.172 57.266,10.000 C57.343,9.923 57.421,9.883 57.500,9.883 C57.577,9.883 57.617,9.962 57.617,10.117 C57.460,11.055 57.656,11.681 58.203,11.992 C58.828,12.618 58.672,13.204 57.734,13.750 C55.781,14.611 53.475,14.845 50.820,14.453 ZM56.211,7.187 C55.350,7.579 53.671,8.125 51.172,8.828 C51.093,8.828 51.014,8.790 50.938,8.711 L51.055,8.477 C52.617,7.539 53.827,6.525 54.687,5.430 C54.764,5.353 54.843,5.313 54.922,5.313 L56.445,6.836 C56.522,6.915 56.522,6.993 56.445,7.070 C56.445,7.149 56.367,7.187 56.211,7.187 ZM44.961,10.937 C44.258,11.485 43.789,11.368 43.555,10.586 C43.555,10.509 43.555,10.430 43.555,10.352 C43.476,9.962 43.320,9.531 43.086,9.062 C39.726,9.689 37.069,10.196 35.117,10.586 C34.725,10.743 34.531,10.703 34.531,10.469 L34.297,9.297 C34.218,9.062 34.297,8.945 34.531,8.945 C35.234,8.711 35.742,8.359 36.055,7.891 C38.085,5.860 39.530,3.751 40.391,1.562 C40.391,1.407 40.429,1.328 40.508,1.328 C40.508,1.251 40.585,1.290 40.742,1.445 L42.852,3.320 C43.086,3.555 43.007,3.789 42.617,4.023 C42.383,4.181 42.070,4.454 41.680,4.844 C39.805,6.563 38.320,7.931 37.227,8.945 L43.086,8.828 C42.773,7.891 42.421,6.993 42.031,6.133 C41.953,5.898 42.031,5.822 42.266,5.898 C44.062,6.993 45.195,7.931 45.664,8.711 C45.820,8.945 45.820,9.258 45.664,9.648 C45.430,10.196 45.195,10.626 44.961,10.937 ZM29.656,6.250 L29.656,10.937 L29.773,11.289 C29.850,11.289 29.812,11.329 29.656,11.406 C28.327,11.406 26.100,11.485 22.977,11.641 L22.977,12.578 C23.053,13.360 22.585,14.142 21.570,14.922 C21.336,15.079 21.178,15.118 21.102,15.039 C21.023,15.039 20.984,14.962 20.984,14.805 L20.984,6.836 C20.984,6.446 20.944,5.781 20.867,4.844 C20.867,4.375 20.867,4.064 20.867,3.906 C20.867,3.829 20.906,3.751 20.984,3.672 L21.219,3.789 L22.977,4.844 L27.195,4.727 L28.133,3.672 L30.242,5.195 C30.398,5.274 30.398,5.353 30.242,5.430 L29.656,6.250 ZM27.195,5.078 L22.977,5.195 L22.977,11.055 L27.312,10.820 L27.195,5.078 ZM15.359,10.000 C15.202,10.234 15.046,10.665 14.891,11.289 C14.891,11.368 14.891,11.447 14.891,11.523 C17.077,12.150 18.289,12.774 18.523,13.398 C18.679,14.102 18.366,14.766 17.586,15.391 C17.194,15.625 16.883,15.508 16.648,15.039 C16.257,13.790 15.594,12.736 14.656,11.875 C14.030,13.360 13.133,14.570 11.961,15.508 L13.836,16.445 L22.742,16.445 L24.266,15.039 L26.609,16.914 C26.765,16.993 26.765,17.110 26.609,17.266 L25.906,18.203 L25.906,25.000 C25.906,26.328 25.242,27.538 23.914,28.633 C23.601,29.023 23.328,28.984 23.094,28.516 C22.546,27.344 22.156,26.641 21.922,26.406 L13.602,26.641 C13.288,27.265 12.781,27.930 12.078,28.633 C11.765,28.867 11.531,28.788 11.375,28.398 L11.492,17.969 L11.375,15.977 C9.890,17.148 7.116,18.399 3.055,19.727 C2.897,19.805 2.780,19.767 2.703,19.609 C2.703,19.454 2.780,19.337 2.938,19.258 C9.031,17.148 12.430,14.063 13.133,10.000 L9.500,10.117 C8.094,10.196 7.039,10.352 6.336,10.586 L5.516,9.766 L13.250,9.414 C13.561,8.242 13.719,6.876 13.719,5.313 L11.492,5.313 C10.242,6.797 8.797,8.125 7.156,9.297 C6.922,9.376 6.843,9.297 6.922,9.062 C9.266,6.719 10.828,4.064 11.609,1.094 L13.484,2.383 C13.640,2.462 13.640,2.579 13.484,2.734 L13.016,3.086 C12.703,3.712 12.313,4.258 11.844,4.727 L17.000,4.727 L18.172,3.320 L19.812,4.961 C19.968,4.961 19.930,5.040 19.695,5.195 L15.828,5.195 C15.828,6.836 15.711,8.242 15.477,9.414 L17.352,9.297 L18.523,8.008 L20.164,9.531 C20.320,9.689 20.320,9.766 20.164,9.766 L15.359,10.000 ZM22.977,25.938 L23.094,17.734 C23.094,17.189 22.625,16.914 21.688,16.914 L13.719,17.031 L13.719,20.898 L20.984,20.664 C21.219,20.664 21.336,20.743 21.336,20.898 C21.336,21.133 21.219,21.250 20.984,21.250 L13.719,21.367 L13.602,26.055 L22.977,25.938 ZM36.289,12.461 L38.281,13.398 L42.266,13.047 L43.437,11.875 L45.312,13.281 C45.468,13.439 45.468,13.594 45.312,13.750 L44.844,14.336 L44.727,26.289 C44.648,27.461 43.906,28.516 42.500,29.453 C42.343,29.609 42.187,29.530 42.031,29.219 C41.953,28.358 41.680,27.813 41.211,27.578 C41.053,27.421 41.094,27.344 41.328,27.344 C42.421,27.421 42.890,27.186 42.734,26.641 L42.617,14.336 C42.617,14.025 42.460,13.790 42.148,13.633 L38.281,13.984 L38.164,17.969 L41.680,17.617 C41.914,17.617 42.031,17.696 42.031,17.852 C42.031,18.009 41.914,18.126 41.680,18.203 L38.164,18.555 L38.047,22.539 L41.680,22.187 C41.914,22.187 42.031,22.266 42.031,22.422 C42.031,22.656 41.914,22.773 41.680,22.773 L38.047,23.125 L38.047,26.406 C38.124,27.734 37.695,28.788 36.758,29.570 C36.523,29.726 36.366,29.805 36.289,29.805 C36.132,29.726 36.055,29.609 36.055,29.453 L36.172,16.094 C36.172,15.469 36.132,14.649 36.055,13.633 C36.055,13.164 36.055,12.853 36.055,12.695 C36.055,12.461 36.132,12.384 36.289,12.461 Z" class="cls-1"/>
</svg>
